svgs/thin/trash-can-arrow-up.svg

<svg xmlns="http://www.w3.org/2000/svg" viewBox="0 0 448 512"><!--! Font Awesome Pro 6.4.2 by @fontawesome - https://fontawesome.com License - https://fontawesome.com/license (Commercial License) Copyright 2023 Fonticons, Inc. --><path d="M157.4 27.3L134.4 64H313.6l-23-36.7c-4.4-7-12.1-11.3-20.4-11.3H177.7c-8.3 0-16 4.3-20.4 11.3zM115.6 64l28.2-45.2C151.1 7.1 163.9 0 177.7 0h92.5c13.8 0 26.6 7.1 33.9 18.8L332.4 64H440c4.4 0 8 3.6 8 8s-3.6 8-8 8H8c-4.4 0-8-3.6-8-8s3.6-8 8-8H115.6zM40 112c4.4 0 8 3.6 8 8V440c0 30.9 25.1 56 56 56H344c30.9 0 56-25.1 56-56V120c0-4.4 3.6-8 8-8s8 3.6 8 8V440c0 39.8-32.2 72-72 72H104c-39.8 0-72-32.2-72-72V120c0-4.4 3.6-8 8-8zm184 64c2.1 0 4.2 .8 5.7 2.3l80 80c3.1 3.1 3.1 8.2 0 11.3s-8.2 3.1-11.3 0L232 203.3V392c0 4.4-3.6 8-8 8s-8-3.6-8-8V203.3l-66.3 66.3c-3.1 3.1-8.2 3.1-11.3 0s-3.1-8.2 0-11.3l80-80c1.5-1.5 3.5-2.3 5.7-2.3z"/></svg>

<svg xmlns="http://www.w3.org/2000/svg" viewBox="0 0 448 512"><!--! Font Awesome Pro 6.1.1 by @fontawesome - https://fontawesome.com License - https://fontawesome.com/license (Commercial License) Copyright 2022 Fonticons, Inc. --><path d="M115.6 64L143.8 18.8C151.1 7.105 163.9 0 177.7 0H270.3C284.1 0 296.9 7.105 304.2 18.8L332.4 64H440C444.4 64 448 67.58 448 72C448 76.42 444.4 80 440 80H8C3.582 80 0 76.42 0 72C0 67.58 3.582 64 8 64H115.6zM134.4 64H313.6L290.6 27.28C286.2 20.26 278.5 16 270.3 16H177.7C169.5 16 161.8 20.26 157.4 27.28L134.4 64zM40 112C44.42 112 48 115.6 48 120V440C48 470.9 73.07 496 104 496H344C374.9 496 400 470.9 400 440V120C400 115.6 403.6 112 408 112C412.4 112 416 115.6 416 120V440C416 479.8 383.8 512 344 512H104C64.24 512 32 479.8 32 440V120C32 115.6 35.58 112 40 112zM224 175.1C226.1 175.1 228.2 176.8 229.7 178.3L309.7 258.3C312.8 261.5 312.8 266.5 309.7 269.7C306.5 272.8 301.5 272.8 298.3 269.7L232 203.3V392C232 396.4 228.4 400 224 400C219.6 400 216 396.4 216 392V203.3L149.7 269.7C146.5 272.8 141.5 272.8 138.3 269.7C135.2 266.5 135.2 261.5 138.3 258.3L218.3 178.3C219.8 176.8 221.9 175.1 224 175.1L224 175.1z"/></svg>
